icons/tokens/0x056Fd409E1d7A124BD7017459dFEa2F387b6d5Cd/logo.svg

<svg xmlns="http://www.w3.org/2000/svg" width="32" height="32" viewBox="0 0 32 32">
  <g fill="none" fill-rule="evenodd">
    <path fill="#00DCFA" d="M32,16 C32,13.90592 31.58336,11.81184 30.78208,9.87712 C29.9808,7.9424 28.79456,6.16704 27.3136,4.6864 C25.83296,3.20544 24.0576,2.0192 22.12288,1.21792 C20.18816,0.41664 18.09408,0 16,0 C13.90592,0 11.81184,0.41664 9.87712,1.21792 C7.9424,2.0192 6.16704,3.20544 4.6864,4.6864 C3.20544,6.16704 2.0192,7.9424 1.21792,9.87712 C0.41664,11.81184 0,13.90592 0,16 C0,18.09408 0.41664,20.18816 1.21792,22.12288 C2.0192,24.0576 3.20544,25.83296 4.6864,27.3136 C6.16704,28.79456 7.9424,29.9808 9.87712,30.78208 C11.81184,31.58336 13.90592,32 16,32 C18.09408,32 20.18816,31.58336 22.12288,30.78208 C24.0576,29.9808 25.83296,28.79456 27.3136,27.3136 C28.79456,25.83296 29.9808,24.0576 30.78208,22.12288 C31.58336,20.18816 32,18.09408 32,16 Z"/>
    <path fill="#FFF" d="M19.38016,5 C23.58784,5.00538614 27,8.38217822 27,12.5497822 C27,16.3755248 24.02656,19.6350891 20.19328,20.0428515 C19.792,23.8381782 16.48928,26.7869307 12.61984,26.782184 C8.41184,26.7767921 5,23.4 5,19.232396 C5,15.4066535 7.97344,12.1470891 11.80672,11.7393267 C12.21856,7.944 15.51072,5 19.38016,5 Z M18.45856,20.094495 L6.78656,20.094495 C7.21344,22.9602376 9.69728,25.0804752 12.61984,25.0804752 C15.54656,25.0804752 18.03072,22.9602376 18.45856,20.094495 L18.45856,20.094495 Z M11.75456,13.4568713 C9.18784,13.8434059 7.17184,15.8448317 6.78656,18.3927921 L6.789,18.376 L11.75456,18.3769505 Z M18.52672,13.3893861 L13.47328,13.3893861 L13.47328,18.3769505 L18.52672,18.3769505 L18.52672,13.3893861 Z M25.21344,13.3893861 L20.24544,13.3893861 L20.24544,18.3148515 C22.80672,17.928 24.82272,15.9319604 25.21344,13.3893861 L25.21344,13.3893861 Z M19.38016,6.70170297 C16.45344,6.70170297 13.96928,8.82162376 13.54144,11.6876832 L13.54144,11.6876832 L25.21344,11.6876832 C24.78656,8.82162376 22.30272,6.70170297 19.38016,6.70170297 Z"/>
  </g>
</svg>

<svg viewBox="0 0 32 32"><g fill="none" fill-rule="evenodd"><path fill="#00DCFA" d="M32 16c0-2.094-.417-4.188-1.218-6.123a16.047 16.047 0 00-3.468-5.19 16.047 16.047 0 00-5.191-3.47A16.055 16.055 0 0016 0c-2.094 0-4.188.417-6.123 1.218a16.047 16.047 0 00-5.19 3.468 16.047 16.047 0 00-3.47 5.191A16.055 16.055 0 000 16c0 2.094.417 4.188 1.218 6.123a16.047 16.047 0 003.468 5.19 16.047 16.047 0 005.191 3.47A16.055 16.055 0 0016 32c2.094 0 4.188-.417 6.123-1.218a16.047 16.047 0 005.19-3.468 16.047 16.047 0 003.47-5.191A16.055 16.055 0 0032 16z"/><path fill="#FFF" d="M19.38 5c4.208.005 7.62 3.382 7.62 7.55 0 3.826-2.973 7.085-6.807 7.493-.401 3.795-3.704 6.744-7.573 6.74C8.412 26.776 5 23.4 5 19.232c0-3.826 2.973-7.086 6.807-7.494C12.219 7.944 15.51 5 19.38 5zm-.921 15.094H6.787c.426 2.866 2.91 4.986 5.833 4.986 2.927 0 5.41-2.12 5.839-4.986zm-6.704-6.637c-2.567.386-4.583 2.388-4.968 4.936l.002-.017 4.966.001zm6.772-.068h-5.054v4.988h5.054v-4.988zm6.686 0h-4.968v4.926c2.562-.387 4.578-2.383 4.968-4.926zM19.38 6.702c-2.927 0-5.41 2.12-5.839 4.986h11.672c-.426-2.866-2.91-4.986-5.833-4.986z"/></g></svg>
